!!!SOCIAL_FUNCTION:	dream songs
!!!PDT:	1929
!!!OTL: No_157_White_Mountain_Birds_were_Singing.krn
!!!REG: Southwest
!!!LANG: Non-Tone
!!!LING_GROUP: Uto-Aztecan
**kern
*staff1
*clefF4
*k[b-e-a-]
*M2/4
4B-\
=1
4g\
4g\
=2||
*M3/4
4f\
8.f\L
16e-\Jk
4g\
=3||
*M2/4
16f\LK
[8.e-\J
(4e-\]
=4
16c\LK)
8.B-\J
4e-\
=5
16c\LK
[8.B-\J
4B-\]
=6
4B-\
4r
=7
2e-\
=8
4e-\
4g\
=9
[2f\
=10
4f\]
8.f\L
16e-\Jk
=11||
*M3/4
4e-\
16e-\LK
[8.c\J
4c\]
=12
8B-\L
8B-\J
4G\
4B-\
=13||
*M2/4
4B-\
8G\
8r
=14
4e-\
8.e-\L
16c\Jk
=15
8c\L
8c\J
4c\
=16||
*M3/4
(2B-\
8G\L)
8F\J
=17||
*M2/4
2B-\
=18
4B-\
4r
==
*-
